X: 1
T: Parry Sound, The
M: 2/4
L: 1/8
R: polka
K: Gmaj
B/c/|db ag|d3 (3c/B/A/|GB df|a2 e2|
ec' c'e|f3e|d/e/d/c/ B_B|B2 Bc|
db ag|d3 (3c/B/A/|GB df|a2 e2|
ec' c'e|f3e|d/e/d/c/ AB|G2 G:|
|:B/c/|dG BB/c/|dG BG|F/G/A/B/ c/B/A/c/|e/d/^c/e/ d/ z/B/=c/|
dG BB/c/|dG BG|F/G/A/B/ c/A/F/A/|GB G:|
